X:1
T:Victoria -- Hornpipe
R:hornpipe
B:Cole's 1000 Fiddle Tunes
M:C|
L:1/8
K:A
(ucB)|"0"A>A,C>E A>c"4"e>c|(3.d."4"e.d (3.c.B.A G>B E>d|c>"4"ed>c d>f"4"e>d|c>ed>c B>dc>B|
"0"A>A,C>E A>c"4"e>c|(3.d."4"e.d (3.c.B.A G>B E>d|c>ed>c d>bB>d|c>eG>B A2:|
|:(u"4"ed)|c>A"4"e>c a>"0"ec>A|f>FA>c f>ed>c|d>Bf>d g>fd>B|d>gb>a g>fe>d|
c>Ae>c a>"0"e"3"c'>"1"a|"0"e'>"3"c'"1"a>"2"e "3"c'>"1"a"0"e>"2"c|a>fd>B f>dc>B|A>cE>G|A2:|
